X: 11853
T: Elzic's Farewell
R: reel
M: 4/4
K: Adorian
|:"Am"e2>(e2 e2)d2|c3d cAG2|e a2>b2 age^f|"G"g^fga gfd2|
"Am"e2>(e2 e2)d2|c3d cAG2|ABAG EDCD|"G(Em) - (G)"EGAB"Am"A4:|
"Am"ABAG EGAB|cBcd eged|cdcA "G"GBAG|"Am"EA2A A4|
"Am"ABAG EGAB|cBcd eged|cdcA "G"GBAG|"Am"EA2(A A)Bcd||
A,2(A,2A,)A,C2|D3E DCA,C|D2DE DCA,C|DCDE DCA,C|
A,2(A,2A,)A,C2|D3E DCA,C|D2DE DCA,2|CA,2G, A,4|
[A,2E2][A,2E2] CA,G,C|A,C[G,D]C A,CG,C|[A,2E2][A,2E2] CA,G,C|A,C[G,D]C [A,4E4]|

